X: 13
T: Silver Spire, The
Z: UPipes & harp
S: https://thesession.org/tunes/240#setting50130
R: reel
M: 4/4
L: 1/8
K: Dmaj
|:D2~D2 FA~A2|dcde fdAF|GABG FGAF|GFED E2 FE|
D2~D2 FA~A2|dcde fdAF|GABG F2AF|1 EFGE D2 FE:|2 EFGE D3 A||
|:D2~D2 EFGE|FDEF GABc|dcBA Bcde|fdgf e2 (3ABc|
defd ceAc|dcdA BAFD|GABG F2AF|1 EFGE D3 A:|2 EFGE D2 FE||

